X:1
T:Trinklied
T:Heinrich Marschner
T:Trinklied
T:CPDL   —   Creative Commons Attribution Non Commercial 3.0
T:CPDL   —   Creative Commons Attribution Non Commercial 3.0
T:CPDL   —   Creative Commons Attribution Non Commercial 3.0
T:CPDL   —   Creative Commons Attribution Non Commercial 3.0
C:Heinrich Marschner
Z:CPDL   —   Creative Commons Attribution Non Commercial 3.0
%%score [ ( 1 2 ) 3 4 ( 5 6 ) ]
L:1/8
Q:1/4=100
M:2/4
K:D
V:1 treble-8 nm="Tenor" snm="T"
V:2 treble-8 
V:3 treble-8 nm="Tenor\n1" snm="T\n1"
V:4 treble-8 nm="Tenor\n2" snm="T\n2"
V:5 bass nm="Bass" snm="B"
V:6 bass 
V:1
"^Feurig, mit Laune"!f! dA Bc | de f2 | !>!e2 !>!e2 | !>!g2 z2 | !>!gf ee | !>!fe d2 | %6
w: 1.  Brü- der, lasst uns|lus- tig sein,|hier beim|Wein!|Reicht das vol- le|Glas her- um!|
w: 2.   Al- le Gril- len|sol- len flieh'n,|wei- ter|zieh'n,|tau- gen nicht in|un- sern Kreis,|
w: 3.  Wer sich freut, der|sei uns Freund,|uns ver-|eint!|und es le- be|drei- mal hoch!|
w: 4.  Brü- der, wollt ihr|lus- tig sein,|trin- ket|Wein,|trinkt die vol- len|Glä- ser aus,|
 !>!B2 !>!e2 | A>!ff!A !fermata!A2 | z4 | z4 | z4 | z4 | z4 | z4 | z4 | z4 | z4 | z4 | z4 | z4 | %20
w: schen- ket|ein! 1\-4. O- ho!|||||||||||||
w: im- mer-|hin! * *|||||||||||||
w: wer's gut|meint! * *|||||||||||||
w: schen- ket|ein! * *|||||||||||||
 !>!f2 !>!d2 | !>!g3 z |!f! g>f ee | f>e df | !>!e2 !>!a2 | !>!f!pp!A/A/ AA/A/ | %26
w: dum, ju-|che!|Das ist heut' ein|Gau- di- um, ein|Gau- di-|um, hei- del- di, hei- del-|
w: ||Trinkt nach al- ter|Vä- ter Weis', nach|Vä- ter|Weis', * * * * *|
w: ||Ihm auch tön' ein|drei- mal Hoch, ein|drei- mal|Hoch! * * * * *|
w: ||Und be- gebt euch|froh nach Haus, euch|froh nach|Haus, * * * * *|
 d!f![Q:1/4=90]"^rallent."d dd | !fermata!f4 |] %28
w: dum, ein Gau- di-|um!|
w: * nach Vä- ter|Weis'.|
w: * ein drei- mal|Hoch!|
w: * euch froh nach|Haus.|
V:2
 AA BA | Ac d2 | e2 e2 | e2 x2 | ed cc | dc d2 | B2 B2 | A>A A2 | x4 | x4 | x4 | x4 | x4 | x4 | %14
 x4 | x4 | x4 | x4 | x4 | x4 | c2 d2 | e3 x | e>d cc | d>c dd | c2 e2 | dA/A/ AA/A/ | AA AA | d4 |] %28
V:3
 z4 | z4 | z4 | z4 | z4 | z4 | z4 | z4 | z4 | z4 | z4 | z4 | z!mf!!<(! A/B/!<)! c2 | %13
w: ||||||||||||1\-4. Hei- del- di,|
 z!<(! d/e/!<)! f2 | z g/f/ ef/e/ | (d2 a2) | z A/B/ c2 | z d/e/ f2 | z g/f/ ef/e/ | d!ff!f ff | %20
w: hei- del- di,|hei- del- di, hei- del-|di, _|hei- del- di,|hei- del- di,|hei- del- di, hei- del-|di, hei- di- del-|
 z4 | z4 | z4 | z4 | z4 | z4 | z4 | z4 |] %28
w: ||||||||
V:4
 z4 | z4 | z4 | z4 | z4 | z4 | z4 | z4 |!pp! AA A!>!B | AA A!>!^G | A!>!d A!>!d | A!>!d A!>!d | %12
w: ||||||||sum sum sum sum|sum sum sum sum|sum sum sum sum|sum sum sum sum|
 cA AA | AA AA | cc cc | dA AA | !>!cA AA | !>!dA AA | cc cc | d!ff!c cc | z4 | z4 | z4 | z4 | z4 | %25
w: sum sum sum sum|sum sum sum sum|sum sum sum sum|sum sum sum sum|sum sum sum sum|sum sum sum sum|sum sum sum sum|sum, hei- di- del-||||||
 z4 | z4 | z4 |] %28
w: |||
V:5
!f! F,F, G,G, | F,A, A,2 | !>!B,2 !>!B,2 | !>!B,2 z2 | !>!A,A, A,A, | !>!A,G, F,2 | %6
 !>!F,2 !>!^G,2 | A,>!ff!A, !fermata!A,2 |!pp! F,F, F,!>!G, | F,F, F,!>!^E, | F,!>!F, F,!>!F, | %11
 F,!>!F, F,!>!F, | G,G, G,G, | F,F, F,F, | G,G, G,G, | F,F, F,F, | G,G, G,G, | F,F, F,F, | %18
 G,G, G,G, | F,!ff!^A, A,A, | !>!^A,2 !>!B,2 | !>!B,3 z |!f! =A,>A, A,A, | A,>A, A,A, | %24
 !>!A,2 !>!C2 | !>!D!pp!F,/F,/ F,F,/F,/ | F,!f!F, F,F, | !fermata!A,4 |] %28
V:6
 D,D, D,E, | D,A,, D,2 | G,2 G,2 | E,2 x2 | A,,A, A,A, | D,A,, D,2 | D,2 E,2 | A,,>A, A,2 | %8
 D,D, D,D, | D,D, D,D, | D,D, D,D, | D,D, D,D, | E,E, E,E, | D,D, D,D, | A,,A,, A,,A,, | %15
 D,D, D,D, | E,E, E,E, | D,D, D,D, | A,,A,, A,,A,, | D,F, F,F, | F,2 B,,2 | E,3 x | A,,>A, A,A, | %23
 D,>G, F,D, | A,2 A,2 | D,D,/D,/ D,D,/D,/ | D,D, D,D, | D,4 |] %28

